X: 35536
T: Runescape, The
R: jig
M: 6/8
K: Gminor
ceg c'ge|gec e3|d3 def|e3 ede|
ceg c'ge|g3 gfe|d3fed|ecB c z d:|
|:e3 efg|fdB b z g|c'ge g3|f3 fed|
e3 efg|fdB b z g|c'ge g3|1 fed c z d:|2 fed c3||

